img/pin1.svg

<svg width="36" height="40" viewBox="0 0 36 40" fill="none" xmlns="http://www.w3.org/2000/svg">
<path d="M18 28.2583C23.8795 28.2583 28.6458 23.492 28.6458 17.6125C28.6458 11.733 23.8795 6.96674 18 6.96674C12.1205 6.96674 7.35422 11.733 7.35422 17.6125C7.35422 23.492 12.1205 28.2583 18 28.2583Z" fill="#6D71F9"/>
<path d="M30.5093 5.18145C27.168 1.84016 22.7254 0 18 0C13.2746 0 8.83202 1.84016 5.49073 5.18145C2.14936 8.5229 0.309204 12.9654 0.309204 17.6908C0.309204 26.0273 6.1373 33.2245 14.2338 34.9784L18 40L21.7663 34.9783C29.8627 33.2244 35.6908 26.0273 35.6908 17.6908C35.6908 12.9654 33.8506 8.5229 30.5093 5.18145ZM18 4.6184C25.165 4.6184 30.9941 10.4476 30.9941 17.6125C30.9941 24.7775 25.165 30.6067 18 30.6067C10.835 30.6067 5.00588 24.7775 5.00588 17.6125C5.00588 10.4476 10.835 4.6184 18 4.6184Z" fill="#6D71F9"/>
</svg>

<svg width="36" height="40" viewBox="0 0 36 40" fill="none" xmlns="http://www.w3.org/2000/svg"><path d="M18 28.258c5.88 0 10.646-4.766 10.646-10.645 0-5.88-4.767-10.646-10.646-10.646-5.88 0-10.646 4.766-10.646 10.646 0 5.879 4.766 10.645 10.646 10.645z" fill="#6D71F9"/><path d="M30.51 5.181A17.575 17.575 0 0018 0 17.58 17.58 0 005.49 5.181a17.575 17.575 0 00-5.18 12.51c0 8.336 5.827 15.534 13.924 17.287L18 40l3.766-5.022c8.097-1.754 13.925-8.95 13.925-17.287 0-4.726-1.84-9.168-5.182-12.51zM18 4.618c7.165 0 12.994 5.83 12.994 12.994 0 7.166-5.829 12.995-12.994 12.995S5.006 24.777 5.006 17.613c0-7.165 5.829-12.995 12.994-12.995z" fill="#6D71F9"/></svg>
